icons/4_Outdated/Privacy v1.svg

<svg width="1024" height="1024" viewBox="0 0 1024 1024" fill="none" xmlns="http://www.w3.org/2000/svg">
<g clip-path="url(#clip0_3_647)">
<path d="M512 1024C794.77 1024 1024 794.77 1024 512C1024 229.23 794.77 0 512 0C229.23 0 0 229.23 0 512C0 794.77 229.23 1024 512 1024Z" fill="#FF837D"/>
<path d="M205.92 562H231.27V518.28H247C279.32 518.28 302.29 503.34 302.29 471.58C302.29 441.69 280.29 427.5 248.49 427.5H205.92V562ZM245.49 450.13C264.8 450.13 276.9 457.23 276.9 472.36C276.9 488.05 264.8 495.71 244.9 495.71H231.27V450.12L245.49 450.13ZM315.77 562.34H341.12V517.49C341.12 493.95 353.12 484.26 374.92 484.26V458.86C359.15 458.86 348.44 465.33 342.06 476.91L341.12 476.77V461.19L315.77 461.28V562.34ZM383.37 562.7H408.72V461.3H383.37V562.7ZM396 452.85C398.506 452.85 400.955 452.107 403.039 450.715C405.123 449.323 406.747 447.344 407.705 445.029C408.664 442.713 408.915 440.166 408.426 437.708C407.938 435.25 406.731 432.993 404.959 431.221C403.187 429.449 400.929 428.242 398.472 427.753C396.014 427.265 393.466 427.515 391.151 428.474C388.836 429.433 386.857 431.057 385.465 433.141C384.073 435.225 383.33 437.674 383.33 440.18C383.329 441.844 383.655 443.492 384.292 445.03C384.928 446.568 385.861 447.965 387.038 449.142C388.215 450.319 389.612 451.252 391.15 451.888C392.688 452.525 394.336 452.851 396 452.85ZM461.29 562.7H480.29L523.24 461.3H496.21L471.93 525.74L447.84 461.3H418.34L461.29 562.7ZM602.29 562.7H628.62V461.29H601.87V474.6H601.31C594.4 464.1 583.2 458.85 569.94 458.85C543.23 458.85 521.94 479.85 521.94 511.9C521.94 543.95 543.94 565.14 569.94 565.14C584.32 565.14 594.03 559.52 601.69 547.52H602.25L602.29 562.7ZM575.23 541.08C559.91 541.08 548.52 528.75 548.52 511.38C548.52 494.01 559.91 481.87 575.23 481.87C590.55 481.87 601.9 494 601.9 511.39C601.9 528.78 590.5 541.09 575.19 541.09L575.23 541.08ZM712.64 536.6C706.358 539.469 699.546 540.995 692.64 541.08C674.51 541.08 662.42 528.94 662.42 511.01C662.42 494.01 673.42 481.87 691.32 481.87C699.633 481.87 706.633 483.737 712.32 487.47V463C705.685 459.97 698.464 458.44 691.17 458.52C657.55 458.52 635.64 480.93 635.64 511.2C635.64 542.2 658.49 564.44 691.55 564.44C698.804 564.505 705.998 563.107 712.7 560.33L712.64 536.6ZM737 596.5H763.7L818.08 461.3H791.18L768.4 520.78L742.07 461.3H714.07L756.46 549.61L737 596.5Z" fill="white"/>
</g>
<defs>
<clipPath id="clip0_3_647">
<rect width="1024" height="1024" fill="white"/>
</clipPath>
</defs>
</svg>

<svg xmlns="http://www.w3.org/2000/svg" width="1024" height="1024" fill="none">
   <g clip-path="url(#a)">
      <path fill="#FF837D" d="M512 1024c282.77 0 512-229.23 512-512S794.77 0 512 0 0 229.23 0 512s229.23 512 512 512Z"/>
      <path fill="#fff" d="M205.92 562h25.35v-43.72H247c32.32 0 55.29-14.94 55.29-46.7 0-29.89-22-44.08-53.8-44.08h-42.57V562Zm39.57-111.87c19.31 0 31.41 7.1 31.41 22.23 0 15.69-12.1 23.35-32 23.35h-13.63v-45.59l14.22.01Zm70.28 112.21h25.35v-44.85c0-23.54 12-33.23 33.8-33.23v-25.4c-15.77 0-26.48 6.47-32.86 18.05l-.94-.14v-15.58l-25.35.09v101.06Zm67.6.36h25.35V461.3h-25.35v101.4ZM396 452.85a12.672 12.672 0 0 0 12.426-15.142 12.674 12.674 0 0 0-17.275-9.234 12.668 12.668 0 0 0-7.821 11.706 12.653 12.653 0 0 0 3.708 8.962A12.652 12.652 0 0 0 396 452.85Zm65.29 109.85h19l42.95-101.4h-27.03l-24.28 64.44-24.09-64.44h-29.5l42.95 101.4Zm141 0h26.33V461.29h-26.75v13.31h-.56c-6.91-10.5-18.11-15.75-31.37-15.75-26.71 0-48 21-48 53.05s22 53.24 48 53.24c14.38 0 24.09-5.62 31.75-17.62h.56l.04 15.18Zm-27.06-21.62c-15.32 0-26.71-12.33-26.71-29.7 0-17.37 11.39-29.51 26.71-29.51S601.9 494 601.9 511.39s-11.4 29.7-26.71 29.7l.04-.01Zm137.41-4.48a49.613 49.613 0 0 1-20 4.48c-18.13 0-30.22-12.14-30.22-30.07 0-17 11-29.14 28.9-29.14 8.313 0 15.313 1.867 21 5.6V463a49.604 49.604 0 0 0-21.15-4.48c-33.62 0-55.53 22.41-55.53 52.68 0 31 22.85 53.24 55.91 53.24a53.99 53.99 0 0 0 21.15-4.11l-.06-23.73ZM737 596.5h26.7l54.38-135.2h-26.9l-22.78 59.48-26.33-59.48h-28l42.39 88.31L737 596.5Z"/>
   </g>
   <defs>
      <clipPath id="a">
         <path fill="#fff" d="M0 0h1024v1024H0z"/>
      </clipPath>
   </defs>
</svg>
